X:481
T: Es wohnet ein Meister (5-77), S. 124
N: P0751
O: Lothringen
S: MERKELBACH-PINCK, Angelika: Verklingende Weisen, Bd 5, Kassel 1962]
R: Liebe, Trinken, Arbeit]
M: 4/4
L: 1/16
K: G
D2G2 | G4G2E2E2D2D2D2 | F2F2F2A2A4G2
D2 | G4G2E2E4D2D2 | F2F2F2A2A4G2
GA | B4B2B2B4A2A2 | c2c2B2B2A4z2
G2 | A2A2A2A2A4d2c2 | B2B2A2A2G4

@@@ Tune index: 8031
